X: 20683
T: John's
R: waltz
M: 3/4
K: Gmajor
A2|D2 B4|D2 c4|D2 d4|D2 B2 D2|A2 B2 c2|B2 A2 G2|A2 B2 c2|A6|
D2 B4|D2 c4|D2 d4|D2 B2 D2|A2 B2 c2|B2 A2 G2|A2 G2 F2|G4:|
d|e4 c2|A2 B2 c2|d4 B2|G2 A2 B2|c d3|A B4 G|A2 B2 c2|A6|D2 B4|D2 c4|
D2 d4|D2 B2 D2|A2 B2 c2|B2 A2 G2|A2 G2 F2|G6:|

